X:1
T:Ave Maria (1881)
T:Ave Maria (1881)
T:Piccola melodia A Donna Bianca Capranica del Grillo
T:Francesco Paolo Tosti
T:Carmelo Errico
T:by IMSLP - Pubblico dominio
T:by IMSLP - Pubblico dominio
T:by IMSLP - Pubblico dominio
T:by IMSLP - Pubblico dominio
C:Francesco Paolo Tosti
Z:by IMSLP - Pubblico dominio
%%score 1 { ( 2 3 ) | 4 }
L:1/8
Q:1/4=44
M:4/4
K:G
V:1 treble nm="Voice"
V:2 treble nm="Piano"
V:3 treble 
V:4 bass 
V:1
"^Largo" z8 | z8 | z8 | z8 |!p!"^Canto" (3(G G G) G G G G G3/2 G/ | G2 G2 z G G G | %6
w: ||||Per le ful\- gen\- ti cu\- po\- le do\-|ra\- te La me\- lo\-|
 A A A2- A A B c | B2 B2 z4 |!p! B B/ B/ B B B B B B | B2 B2!<(! (3(z B B) (3(B ^c d)!<)! | %10
w: dia del\- l'or\- _ ga\- no suo\-|na\- va;|Len\- to mo\- ri\- vail dì sul\- le ve\-|tra\- te; U\- na nu\- be d'in\-|
 d!>(! ^c B A A4 | A2!>)! z2 z!ppp! D D D | d2 B2 B B B B | B2 A2 z G G G | (G4"^rit."{/B} A4 | %15
w: cen\- soal ciel vo\- la|va, e dol\- ce\-|men\- te dao\- gni lab\- brou\-|sci\- a: A\- ve Ma\-|ri\- _|
 G4) z4 | z8 | z8 | z8 |!p! G G (3(G G G) G G G G | G2 G2 z G G G | A A A2- A A B c | B2 B2 z4 | %23
w: a.||||Nel\- la blan\- da me\- sti\- zia di quell\-|l'o\- ra Tut\- ta se\-|re\- ni\- tà _ di pa\- ra\-|di\- so,|
!p! B B/ B/ B B B B B B | B B/ B/ B2 B z B2 | d ^c B A A2 A A | A2 A2 z!ppp!"^rit." D D D | %27
w: il ca\- va\- lie\- re che so\- spi\- roo\-|gno\- ra m'ap\- par\- ve, e~a|lun\- go ci guar\- dam\- mo in|vi\- so: Fu va\- naal\-|
 e2 B2 B B B B | B2 A2 z G G G | (G4"^rit."{/B} A4 | G4) z4 | z8 | z8 | z8 || %34
w: lo\- ra la pre\- ghie\- ra|mi\- a, A\- ve Ma\-|ri\- _|a.||||
"^Poco più Mosso" G G (3(G G G) G2 G G/ G/ | G2 G2 z G G G |!<(! A A A A A2 B c!<)! | %37
w: Dal\- l'az\- zur\- ro del ciel sten\- di la|ma\- no a mein\- fe\-|li\- ce dal do\- lo\- re af\-|
 B2 B2 z!<(! B B B | B B B!<)! B B2 B B | B2 B z/"^cresc." B/ B B ^c d |!>(! e2 (3(^c B A) A4 | %41
w: fran\- ta; Deh! ch'io nel|pian\- to non t'in\- vo\- chi in\-|va\- no, ar\- ri\- dial\- l'a\- mor|mio, Ver\- gi\- ne san\-|
 A2!>)! z2"^rit." z!pp! D D D | d B B2 B2 B B | B2 A2"^molto rit. e" z G G G |!pp! (G4{/B} A4 | %45
w: ta; Ab\- bi pie\-|tà di me, Ver\- gi\- ne|pi\- a A\- ve Ma\-|ri\- _|
 G2) z2 z4 |] %46
w: a.|
V:2
 ([G,B,G]2 [G,B,F]2 [G,B,E]2 DB |!<(! [B,DG]2 [CFA]2 [B,EG]2{/d} [EAc]2!<)! | %2
!>(! [DGB]4)"^rit." !>![CA]4!>)! |!pp! [DG]4- [DG]2 z2 | [B,G]2 [B,G]2 [B,G]2 [B,G]2 | %5
 [B,G]2 [B,G]2 [B,G]2 [B,G]2 | [A,EG]2 [A,EG]2 ([A,DG]2 [A,DF]2) | %7
 [B,DG]2!<(! ([B,DG]2 [B,EG]2 [EGB]2!<)! | [^DFB]2) [DB]2 [DB]2 [DB]2 | %9
!<(! [^DB]2 [DB]2 [EB]2 [^EB]2!<)! |!>(! [F=d]2 [Adf]2 (d2 ^c2)!>)! | %11
 ([FAd]2"_rit." [EF=c]2 [DFB]2 [CFA]2) | ([B,DA]2 [B,DG]2) [B,^DG]2 [B,DG]2 | %13
 [A,EG]2 [A,EG]2 [A,_EG]2 [A,DF]2 | [B,DG]2 [DGB]2 ((([C=FA]2 [CD^F]2)) | %15
 [B,G]2) [G,B,F]2 [G,B,E]2 !>![A,C]2 |!<(! [B,DG]2 [CFA]2 [B,EG]2{/d} [EAc]2!<)! | %17
!>(! [DGB]4"^rit." !>![CA]4!>)! | [DG]4- [DG]2 z2 | [B,G]2 [B,G]2 [B,G]2 [B,G]2 | %20
 [B,G]2 [B,G]2 [B,G]2 [B,G]2 | [A,EG]2 [A,EG]2 ([A,DG]2 [A,DF]2) | %22
 [B,DG]2!<(! [B,DG]2 [B,EG]2 [EGB]2!<)! |"_cresc." [^DFB]2 [DB]2 [DB]2 [DB]2 | %24
!<(! [^DB]2 [DB]2 [EB]2 [^EB]2!<)! |!>(! [F=d]2 [Adf]2 (d2 ^c2)!>)! | %26
!>(! ([FAd]2 [EF=c]2 [DFB]2 [CFA]2)!>)! |!pp! ([B,DA]2 [B,DG]2) [B,^DG]2 [B,DG]2 | %28
!<(! [A,EG]2 [A,EG]2!>(! [A,_EG]2!<)! [A,DF]2 | [B,DG]2!>)! [DGB]2 (([C=FA]2 [CD^F]2)) | %30
 ([B,G]2 [G,B,F]2 [G,B,E]2!<(! !>![F,C]2 | [B,DG]2 [CFA]2 [B,EG]2{/d} [EAc]2!<)! | %32
!>(! [DGB]4)"^rit." !>![CA]4!>)! | [DG]4- [DG]2 z2 || %34
"^Poco più Mosso" [B,G]2 [B,G]2 [B,G]2 [B,G]2 | [B,G]2 [B,G]2 [B,G]2 [B,G]2 | %36
 [A,EG]2 [A,EG]2 ([A,DG]2 [A,DF]2) | [B,DG]2!<(! ([B,DG]2 [B,EG]2 [EGB]2!<)! | %38
 [^DFB]2) [DB]2"_cresc." [DB]2 [DB]2 |!<(! [^DB]2 ([DB]2 [EB]2 [^EB]2!<)! | %40
!>(! [F=d]2) [Adf]2 (d2 ^c2)!>)! |"_dim." ([FAd]2 [EF=c]2 [DFB]2 [CFA]2) | %42
 [B,DA]2 [B,DG]2 [B,^DG]2 [B,DG]2 | [B,EG]2 [A,EG]2 [A,_EG]2 [A,EG]2 | %44
!>(! [B,DG]2 [DGB]2 !>![CA]4 |"^rit," [DG]4- [DG]2 z2!>)! |] %46
V:3
 x6 !>![A,C]2 | x8 | x4 (GFEF) | (CB,A,C B,2) x2 | x8 | x8 | x8 | x8 | x8 | x8 | x4 !>![Ge]4 | x8 | %12
 x8 | x8 | x8 | x6 DB | x8 | x4 (GFEF) | (CB,A,C B,2) x2 | x8 | x8 | x8 | x8 | x8 | x8 | %25
 x4 !>![Ge]4 | x8 | x8 | x8 | x8 | x6 DB | x8 | x4 (GFEF) | (CB,A,C B,2) x2 || x8 | x8 | x8 | x8 | %38
 x8 | x8 | x4 !>![Ge]4 | x8 | x8 | x8 | x4 (GFEF) | (CB,A,C B,2) x2 |] %46
V:4
 z4!pp! z2 (D,,2 | G,,2 ^D,2 E,2 A,,2 | =D,2) D,2 D,2 D,2 | (G,,4 G,,,2) z2 | z4 (!>!^D,4 | %5
 E,4 =D,4 | C,4 D,4 | G,,4) z4 | z4 (!>!^E,4 | F,4 G,2 ^G,2 | A,4 A,,4 |"^dim." D,2 D,,4) z2 | z8 | %13
 (C,4 ^C,4 | D,4"^col canto" =F,,2 D,,2 | G,,4)!pp! z2 (D,,2 | G,,2 ^D,2 E,2 A,,2 | %17
 =D,2) D,2 D,2 C,2 | (G,,4 G,,,2) z2 |!pp! z4 (!>!^D,4 | E,4 =D,4 | C,4 D,4 | G,,4) z4 | %23
 z4 (!>!^E,4 | F,4 G,2 ^G,2 | A,4 A,,4 |"^col canto" D,2 D,,4) z2 | z8 | (C,4 ^C,4 | %29
 D,4"^col canto" =F,,2 D,,2 |!pp! G,,4) z2 (D,,2 | G,,2 ^D,2 E,2 A,,2 | =D,2) D,2 D,2 C,2 | %33
 (G,,4 G,,,2) z2 || z4!pp! (!>!^D,4 | E,4 =D,4 | C,4 D,4 | G,,4) z4 | z4 (!>!^E,4 | F,4 G,2 ^G,2 | %40
 A,4 A,,4 | D,2 D,,4)"^col canto" z2 | z8 | (C,4 ^C,4 | D,4 D,,4 | G,,4 G,,,2) z2 |] %46

